resources/svg/globe-americas.svg

<svg xmlns="http://www.w3.org/2000/svg" viewBox="0 0 15 15" fill="currentColor"><path fill-rule="evenodd" clip-rule="evenodd" d="M7.5 0C3.35786 0 0 3.35786 0 7.5C0 11.6421 3.35786 15 7.5 15C11.6421 15 15 11.6421 15 7.5C15 3.35786 11.6421 0 7.5 0ZM1.19729 5.90436C1.06845 6.41489 1 6.94945 1 7.5C1 10.5736 3.1333 13.1489 6 13.8261V13.2071L5 12.2071V10.7071L4 9.70711V8.5C4 8.22386 4.22386 8 4.5 8H8.5C9.32843 8 10 8.67157 10 9.5V10.0118C10.5109 10.0849 10.9151 10.4891 10.9882 11H12.9782C13.625 9.9897 14 8.78864 14 7.5C14 4.79606 12.349 2.47775 10 1.49818V2.5C10 3.32843 9.32846 4 8.50004 4H7.50004C7.2239 4 7.00004 4.22386 7.00004 4.5C7.00004 5.32843 6.32846 6 5.50004 6H5.00004V6.70711L4.5607 7.14645C3.97491 7.73223 3.02516 7.73223 2.43938 7.14645L1.19729 5.90436Z" fill="black"/></svg>

<svg xmlns="http://www.w3.org/2000/svg" viewBox="0 0 15 15" fill="currentColor"><path fill-rule="evenodd" clip-rule="evenodd" d="M7.5 0a7.5 7.5 0 100 15 7.5 7.5 0 000-15zM1.197 5.904A6.503 6.503 0 006 13.826v-.619l-1-1v-1.5l-1-1V8.5a.5.5 0 01.5-.5h4A1.5 1.5 0 0110 9.5v.512c.51.073.915.477.988.988h1.99A6.502 6.502 0 0010 1.498V2.5A1.5 1.5 0 018.5 4h-1a.5.5 0 00-.5.5A1.5 1.5 0 015.5 6H5v.707l-.44.44a1.5 1.5 0 01-2.12 0L1.196 5.903z" fill="currentColor"/></svg>
